packages/icons/src/svg/tic-colored.svg

<svg xmlns="http://www.w3.org/2000/svg" viewBox="0 0 16 16">
  <g fill="none">
  <g class="ti-tic-positive-bg" fill="#77828A" fill-rule="nonzero">
    <path d="M16.0001,8 C16.0001,12.418 12.4181,16 8.0001,16 C3.5821,16 0.0001,12.418 0.0001,8 C0.0001,3.582 3.5821,0 8.0001,0 C12.4181,0 16.0001,3.582 16.0001,8"/>
  </g>
  <g class="ti-tic-positive-logo" fill="#FFF" fill-rule="nonzero">
    <path d="M8.8067,13.9111 C8.7017,13.6871 8.5017,13.5181 8.2597,13.4531 L8.2597,10.1871 L10.4107,10.1901 C11.3647,10.1901 12.1377,9.3961 12.1377,8.4161 C12.1377,7.4371 11.3647,6.6421 10.4107,6.6421 C10.3297,6.6421 10.2497,6.6501 10.1727,6.6621 C9.9557,5.6631 9.0687,4.9151 8.0047,4.9151 C7.1587,4.9151 6.4227,5.3901 6.0487,6.0881 C5.9867,6.0751 5.9227,6.0661 5.8567,6.0661 C5.3027,6.0661 4.8537,6.5271 4.8537,7.0971 C4.8537,7.2371 4.8817,7.3721 4.9317,7.4941 C4.3157,7.6111 3.8487,8.1611 3.8487,8.8261 C3.8487,9.5771 4.4407,10.1841 5.1707,10.1841 L7.8227,10.1871 L7.8227,13.4511 C7.5767,13.5151 7.3737,13.6861 7.2677,13.9131 C4.5817,13.5681 2.4497,11.4321 2.1117,8.7451 C2.3817,8.6021 2.5667,8.3181 2.5667,7.9911 C2.5667,7.6641 2.3827,7.3811 2.1127,7.2381 C2.4537,4.5501 4.5917,2.4151 7.2807,2.0761 C7.4217,2.3541 7.7087,2.5451 8.0407,2.5451 C8.3717,2.5451 8.6587,2.3551 8.7997,2.0791 C11.4727,2.4251 13.5957,4.5451 13.9457,7.2171 C13.6507,7.3511 13.4467,7.6471 13.4467,7.9911 C13.4467,8.3361 13.6517,8.6331 13.9467,8.7661 C13.5997,11.4391 11.4787,13.5611 8.8067,13.9111 M15.1497,7.9911 C15.1497,7.5871 14.8667,7.2481 14.4877,7.1621 C14.1137,4.2361 11.8007,1.9201 8.8777,1.5391 C8.8057,1.1421 8.4587,0.8421 8.0407,0.8421 C7.6237,0.8421 7.2777,1.1411 7.2037,1.5361 C4.2737,1.9071 1.9517,4.2241 1.5737,7.1521 C1.1707,7.2211 0.8637,7.5691 0.8637,7.9911 C0.8637,8.4131 1.1697,8.7621 1.5727,8.8301 C1.9477,11.7631 4.2717,14.0841 7.2057,14.4551 C7.2877,14.8391 7.6287,15.1261 8.0377,15.1261 C8.4467,15.1261 8.7887,14.8381 8.8707,14.4521 C11.7997,14.0751 14.1187,11.7521 14.4887,8.8211 C14.8677,8.7341 15.1497,8.3961 15.1497,7.9911"/>
  </g>
  </g>
</svg>

<svg xmlns="http://www.w3.org/2000/svg" viewBox="0 0 16 16">
	<g fill="none">
		<path d="M16 8A8 8 0 1 1 0 8a8 8 0 0 1 16 0" class="ti-tic-positive-bg" fill="#77828A"/>
		<path d="M8.807 13.911a.848.848 0 0 0-.547-.458v-3.266l2.15.003c.955 0 1.728-.794 1.728-1.774 0-.979-.773-1.774-1.727-1.774-.081 0-.161.008-.238.02a2.219 2.219 0 0 0-4.124-.574.934.934 0 0 0-.192-.022c-.554 0-1.003.461-1.003 1.031 0 .14.028.275.078.397a1.347 1.347 0 0 0-1.083 1.332c0 .751.592 1.358 1.322 1.358l2.652.003v3.264a.85.85 0 0 0-.555.462 5.978 5.978 0 0 1-5.156-5.168.853.853 0 0 0 0-1.507 5.978 5.978 0 0 1 5.169-5.162.852.852 0 0 0 1.519.003 5.978 5.978 0 0 1 5.146 5.138.85.85 0 0 0 0 1.55 5.98 5.98 0 0 1-5.14 5.144m6.344-5.92a.851.851 0 0 0-.662-.829 6.514 6.514 0 0 0-5.61-5.623.851.851 0 1 0-1.674-.003 6.512 6.512 0 0 0-5.63 5.616.852.852 0 0 0-.001 1.678 6.512 6.512 0 0 0 5.633 5.625.852.852 0 0 0 1.665-.003 6.511 6.511 0 0 0 5.618-5.63.851.851 0 0 0 .66-.83" class="ti-tic-positive-logo" fill="#FFF"/>
	</g>
</svg>
